assets/svg/mission/background.svg

<svg xmlns="http://www.w3.org/2000/svg" width="916" height="307" fill="none"><path fill="#fff" fill-rule="evenodd" d="M916 50c0-27.614-22.386-50-50-50H50C22.386 0 0 22.386 0 50v207c0 27.614 22.386 50 50 50h702.248c27.615 0 50-22.386 50-50v-14c0-27.614 22.386-50 50-50H866c27.614 0 50-22.386 50-50z" clip-rule="evenodd"/></svg>

<svg width="916" height="307" viewBox="0 0 916 307" fill="none" xmlns="http://www.w3.org/2000/svg">
  <path fill-rule="evenodd" clip-rule="evenodd" d="M916 50C916 22.3858 893.614 0 866 0H50C22.3858 0 0 22.3858 0 50V257C0 284.614 22.3858 307 50 307H752.248C779.863 307 802.248 284.614 802.248 257V243C802.248 215.386 824.634 193 852.248 193H866C893.614 193 916 170.614 916 143V50Z" fill="white" />
</svg>
